src/22/panel/pushbullet-indicator-sync0-light.svg

<svg xmlns="http://www.w3.org/2000/svg" width="22" height="22" version="1.1">
 <defs>
  <style id="current-color-scheme" type="text/css">
   .ColorScheme-Text { color:#bebebe; } .ColorScheme-Highlight { color:#5294e2; }
  </style>
 </defs>
 <path style="fill:currentColor" class="ColorScheme-Text" d="m2.9998 5v12h2v-12h-2zm4 0v12l4.252-0.0332c2.9313-0.03263 3.208-0.07195 4.4473-0.67578 2.702-1.3165 3.9797-4.5047 2.9414-7.3438-0.686-1.8751-2.248-3.2628-4.237-3.7677-0.625-0.1586-1.021-0.1797-3.449-0.1797h-3.9552zm6 2c1.4826 0 2.4128 0.55829 3 1.25v-1.25h1v2 1h-1-2v-1h1.3125c-0.435-0.557-1.1425-1-2.3125-1-3 0-3 3-3 3h-1s0-4 4-4zm3 4h1s0 4-4 4c-1.4826-0.00001-2.4128-0.5583-3-1.25v1.25h-1v-2-1h1 2v1h-1.3125c0.43536 0.55672 1.1425 1 2.3125 1 3 0.00001 3-3 3-3z"/>
</svg>

<svg xmlns="http://www.w3.org/2000/svg" width="22" height="22"><defs><style id="current-color-scheme" type="text/css"></style></defs><path d="M3 5v12h2V5H3zm4 0v12l4.252-.033c2.931-.033 3.208-.072 4.447-.676 2.702-1.316 3.98-4.505 2.941-7.344-.686-1.875-2.248-3.263-4.237-3.767-.625-.16-1.02-.18-3.449-.18H7zm6 2c1.482 0 2.413.558 3 1.25V7h1v3h-3V9h1.312C14.877 8.443 14.17 8 13 8c-3 0-3 3-3 3H9s0-4 4-4zm3 4h1s0 4-4 4c-1.483 0-2.413-.558-3-1.25V15H9v-3h3v1h-1.313c.436.557 1.143 1 2.313 1 3 0 3-3 3-3z" fill="currentColor" color="#bebebe"/></svg>
